X:558
T:Tummelweed
C:Nigel Gatherer, Sam Gifford
Z:Nigel Gatherer
L:1/8
M:4/4
K:Bm
f4    fgfe  | d2 B2  B4   | c4    cdcB  | A2 F2 F4    |
f4    fgfe  | d2 B2  BcdB | c2 A2 f3  e | d2 B2 B4   :|
f2 fe f2 fe | f2 ^g2 a4   | e3 f  ed c2 | efed  c2 e2 |
f2 fe f2 fe | f2 ^g2 a4   | e2 ef ed c2 | d2 B2 B4   :|
<end>
<start>
